X:6326
T:Glen Lyon
T:Haughs of Cromdale
S:Kerr's Merry Melodies
M:4/4
L:1/8
R:reel
K:AMin
% A mixolydian/dorian/minor pentatonic
g|eA A/A/A edBd|BG G/G/G BABd|eA A/A/A edBd|edgB A3:|
g|edeg     abag|dgBg     dgBg|edeg     abag|edgB A3:|
